src/assets/icons/shapes,fancy,outline-heart.svg

<svg width="48" height="48" viewBox="0 0 48 48" fill="none" xmlns="http://www.w3.org/2000/svg">
<path d="M24.3579 39.7898C24.2136 39.903 24.0994 39.9924 24 40.0677C23.9006 39.9924 23.7864 39.903 23.6421 39.7898C22.55 38.9334 21.3972 38.068 20.2187 37.1833C17.1187 34.8563 13.8411 32.396 11.0253 29.615C7.15947 25.7968 4.5 21.6783 4.5 16.9955C4.5 11.7309 8.75393 7.5 14.1176 7.5C17.5019 7.5 19.7285 8.91332 21.4293 10.5051C21.4456 10.5203 21.4619 10.5356 21.4782 10.5508C21.8189 10.8699 22.1608 11.1899 22.4711 11.4209C22.8003 11.6659 23.3174 11.9869 24 11.9869C24.6826 11.9869 25.1997 11.6659 25.5289 11.4209C25.8392 11.1899 26.1811 10.8699 26.5218 10.5508C26.5381 10.5356 26.5544 10.5204 26.5707 10.5051C28.2715 8.91332 30.4981 7.5 33.8824 7.5C39.2461 7.5 43.5 11.7309 43.5 16.9955C43.5 21.6783 40.8405 25.7968 36.9747 29.615C34.1589 32.396 30.8813 34.8563 27.7813 37.1833C26.6028 38.068 25.45 38.9334 24.3579 39.7898Z" stroke="black" stroke-width="3"/>
</svg>

<svg xmlns="http://www.w3.org/2000/svg" width="48" height="48" fill="none" viewBox="0 0 48 48">
  <path stroke="#000" stroke-width="3" d="M4.5 16.995c0-5.264 4.254-9.495 9.618-9.495 3.384 0 5.61 1.413 7.311 3.005l.05.046c.34.319.682.639.992.87.33.245.846.566 1.529.566.683 0 1.2-.321 1.529-.566.31-.231.652-.551.993-.87l.049-.046c1.7-1.592 3.927-3.005 7.311-3.005 5.364 0 9.618 4.23 9.618 9.495 0 4.683-2.66 8.802-6.525 12.62-2.816 2.781-6.094 5.241-9.194 7.568-1.178.885-2.331 1.75-3.423 2.607l-.358.278c-.1-.076-.214-.165-.358-.278-1.092-.857-2.245-1.722-3.423-2.607-3.1-2.327-6.378-4.787-9.194-7.568C7.16 25.797 4.5 21.678 4.5 16.995z"/>
</svg>
